X:1
T:Miss Barker's -- Hornpipe
R:hornpipe
B:Cole's 1000 Fiddle Tunes
M:2/4
L:1/16
K:F
vcB|.A2.F2 FAGF|EGB2 BdcB|Acde fcdB|.A2.G2 .G2cB|
.A2.F2 FAGF|EGB2 BdcB|Acde fcdB|A2F2F2:|
|:uc2|fcAc fagf|gece gbag|afge fdgf|.e2.c2 .c2fe|
dcBA B2ba|gfed c2BA|Bcde fcdB|A2F2F2:|
